icon/gr/scorecard.svg

<svg xmlns="http://www.w3.org/2000/svg" width="24" height="24"><path fill="none" stroke="#000" stroke-width="2" d="M9 18v-6m3 6v-5m3 5v-8m2-7h4v20H3V3h4m0-2h10v4H7V1Z"/></svg>

<svg xmlns="http://www.w3.org/2000/svg" viewBox="0 0 24 24" height="1em" width="1em">
  <path fill="none" stroke="#000" stroke-width="2" d="M9,18 L9,12 M12,18 L12,13 M15,18 L15,10 M17,3 L21,3 L21,23 L3,23 L3,3 L7,3 M7,1 L17,1 L17,5 L7,5 L7,1 Z"/>
</svg>
